X:23039
T:William and Nancy (Bledington)
R:Jig
C:Trad. Morris
O:England; Bledington
Z:Paul Hardy's Session Tunebook 2022 (see www.paulhardy.net). Creative Commons cc by-nc-sa licenced.
%%partsbox 1
P:A.(AB)2.(AC)2.A
M:6/8
L:1/8
Q:3/8=80
N:See also The Legacy.
K:G
P:A
D|"G".G2G GBd|"C".e2e "G"dBG|"D7"A2d "G"BAG|"C"E2"D7"F "G"G2:|
P:B
|:d|"G"e2d B2d|"C"gfe "D"d2d|"G"e2d B2d|"C"gfe "D7"d2c|
"G".B2B Bcd|"C".e2e "G"dBG|"D7"A2d "G"BAG|"C"E2"D7"F "G"G2:|
P:C
|:G|"G"d3 "C"e3|"G"d3 "Em"B3|"G"d3 "Em"g3/2f3/2|"Am"e3 "D"d3|"G"d3 "Em"e3|"G"d3 B2d|
"C"gfe "D7"d2c|"G".B2B Bcd|"C".e2e "G"dBG|"D7"A2d "G"BAG|"C"E2"D7"F "G"G2:|

